wwwroot/icons/weather-icons/iconfinder_Sunny_3741356.svg

<?xml version="1.0" ?><svg height="32px" version="1.1" viewBox="0 0 32 32" width="32px" xmlns="http://www.w3.org/2000/svg" xmlns:xlink="http://www.w3.org/1999/xlink"><title/><desc/><defs/><g fill="none" fill-rule="evenodd" id="Sunny" stroke="none" stroke-width="1"><g stroke="#979797" stroke-width="2" transform="translate(2.000000, 2.000000)"><circle cx="14" cy="14" id="Oval-4" r="8"/><path d="M14,0 L14,3 M23.8994949,4.10050506 L21.7781746,6.22182541 M28,14 L25,14 M23.8994949,23.8994949 L21.7781746,21.7781746 M14,28 L14,25 M4.10050506,23.8994949 L6.22182541,21.7781746 M3.83475851e-17,14 L3,14 M4.10050506,4.10050506 L6.22182541,6.22182541" id="Path-7" stroke-linecap="round"/></g></g></svg>

<?xml version="1.0" encoding="utf-8"?>
<!-- Generator: Adobe Illustrator 25.0.1, SVG Export Plug-In . SVG Version: 6.00 Build 0)  -->
<svg version="1.1" id="Layer_1" xmlns="http://www.w3.org/2000/svg" xmlns:xlink="http://www.w3.org/1999/xlink" x="0px" y="0px"
	 viewBox="0 0 32 32" style="enable-background:new 0 0 32 32;" xml:space="preserve">
<style type="text/css">
	.st0{fill:none;stroke:#FFFFFF;stroke-width:2;}
	.st1{fill:none;stroke:#FFFFFF;stroke-width:2;stroke-linecap:round;}
</style>
<desc></desc>
<g id="Sunny">
	<g transform="translate(2.000000, 2.000000)">
		<circle id="Oval-4" class="st0" cx="14" cy="14" r="8"/>
		<path id="Path-7" class="st1" d="M14,0v3 M23.9,4.1l-2.1,2.1 M28,14h-3 M23.9,23.9l-2.1-2.1 M14,28v-3 M4.1,23.9l2.1-2.1 M0,14h3
			 M4.1,4.1l2.1,2.1"/>
	</g>
</g>
</svg>
